src/categories-icons-sprite/categories/svg-cat-child-safe.svg

<svg width="23" height="38" viewBox="0 0 23 38" fill="none" xmlns="http://www.w3.org/2000/svg">
<path class="p-04303E" d="M21.2725 0H18.9941V15.7202H21.2725V0Z" fill="#4D98CB"/>
<path class="p-FF3939" d="M11.0162 38.0001H16.3329C19.4807 38.0001 22.0324 35.4484 22.0324 32.3006L9.49609 30.7805L11.0162 38.0001Z" fill="#4D98CB"/>
<path class="p-FF9100" d="M0 32.3006C0 35.4484 2.55176 38.0001 5.69951 38.0001H11.0162V30.7805L0 32.3006Z" fill="#58ADE5"/>
<path class="p-DDC2B7" d="M11.0162 6.47144L9.49609 20.2806L11.0162 33.1842H22.0324V17.4877C22.0324 11.4133 17.0906 6.47144 11.0162 6.47144Z" fill="#A1D1FD"/>
<path class="p-FFE9E0" d="M11.0162 6.47144C4.94187 6.47144 0 11.4133 0 17.4877V33.1842H11.0162V6.47144Z" fill="#B9DFFC"/>
<path class="p-04303E" d="M16.7167 14.5811H14.4365V16.8594H16.7167V14.5811Z" fill="#4D98CB"/>
<path class="p-09607D" d="M12.1561 14.5811H9.87598V16.8594H12.1561V14.5811Z" fill="#58ADE5"/>
<path class="p-09607D" d="M7.59657 14.5811H5.31641V16.8594H7.59657V14.5811Z" fill="#58ADE5"/>
<path class="p-04303E" d="M16.7167 19.1414H14.4365V21.4197H16.7167V19.1414Z" fill="#4D98CB"/>
<path class="p-04303E" d="M16.7167 23.7017H14.4365V25.98H16.7167V23.7017Z" fill="#4D98CB"/>
<path class="p-09607D" d="M12.1561 19.1414H9.87598V21.4197H12.1561V19.1414Z" fill="#58ADE5"/>
<path class="p-09607D" d="M7.59657 19.1414H5.31641V21.4197H7.59657V19.1414Z" fill="#58ADE5"/>
<path class="p-09607D" d="M12.1561 23.7017H9.87598V25.98H12.1561V23.7017Z" fill="#58ADE5"/>
<path class="p-09607D" d="M7.59657 23.7017H5.31641V25.98H7.59657V23.7017Z" fill="#58ADE5"/>
</svg>

<svg width="23" height="38" fill="none" xmlns="http://www.w3.org/2000/svg"><path class="p-04303E" d="M21.273 0h-2.279v15.72h2.279V0z" fill="#4D98CB"/><path class="p-FF3939" d="M11.016 38h5.317a5.7 5.7 0 005.7-5.7L9.495 30.78l1.52 7.22z" fill="#4D98CB"/><path class="p-FF9100" d="M0 32.3A5.7 5.7 0 005.7 38h5.316v-7.22L0 32.3z" fill="#58ADE5"/><path class="p-DDC2B7" d="M11.016 6.471l-1.52 13.81 1.52 12.903h11.016V17.488c0-6.075-4.941-11.017-11.016-11.017z" fill="#A1D1FD"/><path class="p-FFE9E0" d="M11.016 6.471C4.942 6.471 0 11.413 0 17.488v15.696h11.016V6.471z" fill="#B9DFFC"/><path class="p-04303E" d="M16.717 14.581h-2.28v2.278h2.28v-2.278z" fill="#4D98CB"/><path class="p-09607D" d="M12.156 14.581h-2.28v2.278h2.28v-2.278zM7.597 14.581h-2.28v2.278h2.28v-2.278z" fill="#58ADE5"/><path class="p-04303E" d="M16.717 19.141h-2.28v2.279h2.28V19.14zM16.717 23.702h-2.28v2.278h2.28v-2.278z" fill="#4D98CB"/><path class="p-09607D" d="M12.156 19.141h-2.28v2.279h2.28V19.14zM7.597 19.141h-2.28v2.279h2.28V19.14zM12.156 23.702h-2.28v2.278h2.28v-2.278zM7.597 23.702h-2.28v2.278h2.28v-2.278z" fill="#58ADE5"/></svg>
